X:203
T:Polska efter C A Lindblom
R:sl\"angpolska
A:\"Osterg\"otland
B:SvL \"Ogl 44
Z:id:hn-sp-203
M:3/4
L:1/16
K:D
A2d2 c2d2 B2c2 | ABcd e6 c2 | d2ef g2f2 e2d2 | cdcB ABAG FGFE |
D2d2 c2d2 B2c2 | ABcd e6 c2 | d2ef g2f2 g2e2 |
d3c [c4E4] [d2F2]z2 :||: A4 aAaA gAgA | fAfA gAgA fAfA |
f2ef g2f2 e2d2 | cdcB ABAG FGFE | D4 aAaA gAgA | fAfA gAgA fAfA |
f2ef g2b2 g2e2 | d3c [c4E4] [d2F2]z2 :|

